src/assets/icons/logo.svg

<svg width="168" height="62" viewBox="0 0 168 62" fill="none" xmlns="http://www.w3.org/2000/svg">
<path d="M103.916 27.507V0H115.115C117.683 0 119.792 0.37986 121.442 1.13958C123.092 1.8731 124.311 2.94718 125.096 4.36183C125.909 5.75028 126.315 7.4269 126.315 9.39169C126.315 11.3303 125.909 13.0069 125.096 14.4216C124.311 15.8362 123.092 16.9234 121.442 17.6831C119.792 18.4166 117.683 18.7834 115.115 18.7834H110.989V27.507H103.916ZM110.989 12.9676H114.329C116.137 12.9676 117.408 12.6663 118.141 12.0638C118.875 11.4613 119.241 10.5706 119.241 9.39169C119.241 8.21282 118.875 7.32211 118.141 6.71958C117.408 6.11704 116.137 5.81577 114.329 5.81577H110.989V12.9676Z" fill="#FF4D00"/>
<path d="M78.5918 27.507V0H98.6326V5.42282H85.665V10.8063H97.4538V15.9148H85.665V22.0842H98.6326V27.507H78.5918Z" fill="#FF4D00"/>
<path d="M51.4155 27.507V0H64.5796C67.8019 0 70.1465 0.64183 71.6136 1.92549C73.0806 3.18296 73.8141 4.99056 73.8141 7.34831C73.8141 8.76296 73.4474 9.98113 72.7138 11.0028C71.9803 11.9983 70.9979 12.7187 69.7667 13.1641C71.3647 13.5308 72.6352 14.2775 73.5783 15.4039C74.5214 16.5042 74.993 17.9451 74.993 19.7265C74.993 21.3245 74.6393 22.713 73.932 23.8918C73.2509 25.0445 72.1768 25.9352 70.7098 26.5639C69.2427 27.1927 67.3303 27.507 64.9726 27.507H51.4155ZM58.4888 22.0842H63.4007C65.1036 22.0842 66.2824 21.8354 66.9374 21.3376C67.5923 20.8137 67.9197 20.0147 67.9197 18.9406C67.9197 17.8665 67.5792 17.0675 66.8981 16.5435C66.2431 16.0196 65.0381 15.7576 63.2828 15.7576H58.4888V22.0842ZM58.4888 10.9635H62.8506C64.37 10.9635 65.3917 10.7277 65.9157 10.2562C66.4658 9.75845 66.7409 9.06423 66.7409 8.17352C66.7409 7.25662 66.4658 6.57549 65.9157 6.13014C65.3917 5.65859 64.3831 5.42282 62.8899 5.42282H58.4888V10.9635Z" fill="#FF4D00"/>
<path d="M25.3242 27.507V0H38.4883C41.7106 0 44.0552 0.64183 45.5222 1.92549C46.9893 3.18296 47.7228 4.99056 47.7228 7.34831C47.7228 8.76296 47.3561 9.98113 46.6225 11.0028C45.889 11.9983 44.9066 12.7187 43.6753 13.1641C45.2734 13.5308 46.5439 14.2775 47.487 15.4039C48.4301 16.5042 48.9017 17.9451 48.9017 19.7265C48.9017 21.3245 48.548 22.713 47.8407 23.8918C47.1596 25.0445 46.0855 25.9352 44.6184 26.5639C43.1514 27.1927 41.239 27.507 38.8813 27.507H25.3242ZM32.3975 22.0842H37.3094C39.0122 22.0842 40.1911 21.8354 40.8461 21.3376C41.501 20.8137 41.8284 20.0147 41.8284 18.9406C41.8284 17.8665 41.4879 17.0675 40.8068 16.5435C40.1518 16.0196 38.9468 15.7576 37.1915 15.7576H32.3975V22.0842ZM32.3975 10.9635H36.7593C38.2787 10.9635 39.3004 10.7277 39.8244 10.2562C40.3745 9.75845 40.6496 9.06423 40.6496 8.17352C40.6496 7.25662 40.3745 6.57549 39.8244 6.13014C39.3004 5.65859 38.2918 5.42282 36.7986 5.42282H32.3975V10.9635Z" fill="#FF4D00"/>
<path d="M126.533 27.9437L134.901 13.373L126.9 0H134.203L139.231 8.46294L144.333 0H151.49L143.525 13.2932L167.662 62H160.722L139.231 18.7746L134.203 27.9437H126.533Z" fill="#FF4D00"/>
<path d="M48.9888 60.6903L57.0681 46.575L49.3431 33.6199H56.3949L61.2496 41.8183L66.1751 33.6199H73.0851L65.3955 46.4977L73.4395 60.6903H66.3169L61.1433 51.2156L55.9696 60.6903H48.9888Z" fill="#3A3A3A"/>
<path d="M27.1572 60.6902V33.1831H47.1981V38.6059H34.2305V43.9894H46.0192V49.0979H34.2305V55.2673H47.1981V60.6902H27.1572Z" fill="#3A3A3A"/>
<path d="M8.44859 60.6902V38.9989H0V33.1831H23.9704V38.9989H15.5218V60.6902H8.44859Z" fill="#3A3A3A"/>
<path fill-rule="evenodd" clip-rule="evenodd" d="M121.826 33.9287C114.307 33.9287 108.212 40.0236 108.212 47.5421V48.259C108.212 55.7774 114.307 61.8724 121.826 61.8724C129.344 61.8724 135.439 55.7774 135.439 48.259V47.5421C135.439 40.0236 129.344 33.9287 121.826 33.9287ZM121.826 40.0413C117.597 40.0413 114.168 43.4697 114.168 47.6988V48.102C114.168 52.3312 117.597 55.7596 121.826 55.7596C126.055 55.7596 129.483 52.3312 129.483 48.102V47.6988C129.483 43.4697 126.055 40.0413 121.826 40.0413Z" fill="#3A3A3A"/>
<path fill-rule="evenodd" clip-rule="evenodd" d="M78.6787 33.6199V61.1269H85.7519V54.141H95.9689V61.1269H103.042V33.6199H95.9689V41.0424H85.7519V33.6199H78.6787ZM96.0566 45.4085H85.5777V49.7747H96.0566V45.4085Z" fill="#3A3A3A"/>
</svg>

<svg xmlns="http://www.w3.org/2000/svg" width="168" height="62" fill="none"><path fill="#FF4D00" d="M103.916 27.507V0h11.199c2.568 0 4.677.38 6.327 1.14 1.65.733 2.869 1.807 3.654 3.222.813 1.388 1.219 3.065 1.219 5.03 0 1.938-.406 3.615-1.219 5.03-.785 1.414-2.004 2.501-3.654 3.261-1.65.734-3.759 1.1-6.327 1.1h-4.126v8.724h-7.073Zm7.073-14.54h3.34c1.808 0 3.079-.3 3.812-.903.734-.603 1.1-1.493 1.1-2.672 0-1.18-.366-2.07-1.1-2.672-.733-.603-2.004-.904-3.812-.904h-3.34v7.152ZM78.592 27.507V0h20.04v5.423H85.666v5.383h11.789v5.109H85.665v6.17h12.968v5.422H78.592ZM51.416 27.507V0H64.58c3.222 0 5.567.642 7.034 1.925 1.467 1.258 2.2 3.066 2.2 5.423 0 1.415-.367 2.633-1.1 3.655-.734.995-1.716 1.716-2.947 2.161 1.598.367 2.868 1.114 3.811 2.24.943 1.1 1.415 2.541 1.415 4.323 0 1.598-.354 2.986-1.061 4.165-.681 1.152-1.755 2.043-3.222 2.672s-3.38.943-5.737.943H51.416Zm7.073-5.423H63.4c1.703 0 2.881-.249 3.536-.746.655-.524.983-1.323.983-2.397 0-1.075-.34-1.873-1.022-2.397-.655-.524-1.86-.786-3.615-.786h-4.794v6.326Zm0-11.12h4.362c1.519 0 2.54-.236 3.065-.708.55-.498.825-1.192.825-2.082 0-.917-.275-1.599-.825-2.044-.524-.471-1.533-.707-3.026-.707h-4.401v5.54ZM25.324 27.507V0h13.164c3.223 0 5.567.642 7.034 1.925 1.467 1.258 2.2 3.066 2.2 5.423 0 1.415-.366 2.633-1.1 3.655-.733.995-1.715 1.716-2.947 2.161 1.598.367 2.869 1.114 3.812 2.24.943 1.1 1.415 2.541 1.415 4.323 0 1.598-.354 2.986-1.061 4.165-.681 1.152-1.755 2.043-3.223 2.672-1.467.629-3.379.943-5.737.943H25.324Zm7.073-5.423h4.912c1.703 0 2.882-.249 3.537-.746.655-.524.982-1.323.982-2.397 0-1.075-.34-1.873-1.021-2.397-.655-.524-1.86-.786-3.616-.786h-4.794v6.326Zm0-11.12h4.362c1.52 0 2.541-.236 3.065-.708.55-.498.826-1.192.826-2.082 0-.917-.276-1.599-.826-2.044-.524-.471-1.532-.707-3.025-.707h-4.401v5.54ZM126.533 27.944l8.368-14.571L126.9 0h7.303l5.028 8.463L144.333 0h7.157l-7.965 13.293L167.662 62h-6.94l-21.491-43.225-5.028 9.169h-7.67Z"/><path fill="#3A3A3A" d="m48.989 60.69 8.08-14.115-7.726-12.955h7.052l4.855 8.198 4.925-8.198h6.91l-7.69 12.878L73.44 60.69h-7.122l-5.174-9.474-5.173 9.474h-6.981ZM27.157 60.69V33.183h20.041v5.423H34.23v5.383h11.79v5.109H34.23v6.17h12.968v5.422h-20.04ZM8.449 60.69V39H0v-5.816h23.97V39h-8.448V60.69H8.449Z"/><path fill="#3A3A3A" fill-rule="evenodd" d="M121.826 33.929c-7.519 0-13.614 6.095-13.614 13.613v.717c0 7.518 6.095 13.613 13.614 13.613 7.518 0 13.613-6.095 13.613-13.613v-.717c0-7.518-6.095-13.613-13.613-13.613Zm0 6.112a7.658 7.658 0 0 0-7.658 7.658v.403a7.658 7.658 0 0 0 15.315 0v-.403a7.657 7.657 0 0 0-7.657-7.658ZM78.679 33.62v27.507h7.073V54.14h10.217v6.986h7.073V33.62h-7.073v7.422H85.752V33.62h-7.073Zm17.378 11.788h-10.48v4.367h10.48v-4.367Z" clip-rule="evenodd"/></svg>
